X: 1
T: the Battle of the Somme
C: Pipe Major William Laurie (1882-1916)
B: "Army Manual of Bagpipe Tunes and Drum Beatings. Music for Massed Pipes and Drums, Book 2" 1934
S: The Albion Country Band
R: march
M: 9/8
L: 1/8
%Q: 1/8=90
K: D
faf \
| d3 c2d edG | B3   A3  BdB | A3  d2e faf  | e3- e2A faf |
| d3 c2d edG | B>cB A3  BdB | A3  f2f e>fe | d3- d2A :|
|: dcd \
| e3 A2e ede | fa2  d2c def | g2z A2g faf  | e3- e2A faf |
| d3 c2d edG | B3   A3  BdB | A3  f2f e>fe | d3- d2d :|
